static/assets/img/icons/theme/navigation/up-down.svg

<svg height="24" viewBox="0 0 24 24" width="24" xmlns="http://www.w3.org/2000/svg"><g fill="none" fill-rule="evenodd"><path d="m0 0h24v24h-24z" opacity="0"/><g fill="#000"><rect height="12" opacity=".3" rx="1" transform="matrix(-1 0 0 -1 12 22)" width="2" x="5" y="5"/><path d="m8.29289322 14.2928932c.39052429-.3905243 1.02368927-.3905243 1.41421356 0 .39052432.3905243.39052432 1.0236893 0 1.4142136l-3 3c-.39052429.3905243-1.02368927.3905243-1.41421356 0l-3-3c-.39052429-.3905243-.39052429-1.0236893 0-1.4142136s1.02368927-.3905243 1.41421356 0l2.29289322 2.2928932z" fill-rule="nonzero"/><rect height="12" opacity=".3" rx="1" transform="matrix(-1 0 0 1 36 0)" width="2" x="17" y="7"/><path d="m20.2928932 5.29289322c.3905243-.39052429 1.0236893-.39052429 1.4142136 0s.3905243 1.02368927 0 1.41421356l-3 3c-.3905243.39052432-1.0236893.39052432-1.4142136 0l-3-3c-.3905243-.39052429-.3905243-1.02368927 0-1.41421356s1.0236893-.39052429 1.4142136 0l2.2928932 2.29289322z" fill-rule="nonzero" transform="matrix(1 0 0 -1 0 15)"/></g></g></svg>

<svg width="24px" height="24px" viewBox="0 0 24 24" version="1.1" xmlns="http://www.w3.org/2000/svg" xmlns:xlink="http://www.w3.org/1999/xlink">
    <title>Icon For Up-down</title>
    <g stroke="none" stroke-width="1" fill="none" fill-rule="evenodd">
        <polygon points="0 0 24 0 24 24 0 24" opacity="0"></polygon>
        <rect fill="#000000" opacity="0.3" transform="translate(6.000000, 11.000000) rotate(-180.000000) translate(-6.000000, -11.000000) " x="5" y="5" width="2" height="12" rx="1"></rect>
        <path d="M8.29289322,14.2928932 C8.68341751,13.9023689 9.31658249,13.9023689 9.70710678,14.2928932 C10.0976311,14.6834175 10.0976311,15.3165825 9.70710678,15.7071068 L6.70710678,18.7071068 C6.31658249,19.0976311 5.68341751,19.0976311 5.29289322,18.7071068 L2.29289322,15.7071068 C1.90236893,15.3165825 1.90236893,14.6834175 2.29289322,14.2928932 C2.68341751,13.9023689 3.31658249,13.9023689 3.70710678,14.2928932 L6,16.5857864 L8.29289322,14.2928932 Z" fill="#000000" fill-rule="nonzero"></path>
        <rect fill="#000000" opacity="0.3" transform="translate(18.000000, 13.000000) scale(1, -1) rotate(-180.000000) translate(-18.000000, -13.000000) " x="17" y="7" width="2" height="12" rx="1"></rect>
        <path d="M20.2928932,5.29289322 C20.6834175,4.90236893 21.3165825,4.90236893 21.7071068,5.29289322 C22.0976311,5.68341751 22.0976311,6.31658249 21.7071068,6.70710678 L18.7071068,9.70710678 C18.3165825,10.0976311 17.6834175,10.0976311 17.2928932,9.70710678 L14.2928932,6.70710678 C13.9023689,6.31658249 13.9023689,5.68341751 14.2928932,5.29289322 C14.6834175,4.90236893 15.3165825,4.90236893 15.7071068,5.29289322 L18,7.58578644 L20.2928932,5.29289322 Z" fill="#000000" fill-rule="nonzero" transform="translate(18.000000, 7.500000) scale(1, -1) translate(-18.000000, -7.500000) "></path>
    </g>
</svg>
